packages/ffe-icons/icons/open/300/lg/personal_video.svg

<svg xmlns="http://www.w3.org/2000/svg" height="40" viewBox="0 -960 960 960" width="40"><path d="M162.565-220.001q-25.788 0-44.176-18.388t-18.388-44.176v-474.87q0-25.788 18.388-44.176t44.176-18.388h634.87q25.788 0 44.176 18.388t18.388 44.176v474.87q0 25.788-18.388 44.176t-44.176 18.388H615.127v48.718q0 13.391-8.946 22.336-8.945 8.946-22.336 8.946h-207.69q-13.391 0-22.336-8.946-8.946-8.945-8.946-22.336v-48.718H162.565Zm0-50.255h634.87q4.616 0 8.462-3.847 3.847-3.846 3.847-8.462v-474.87q0-4.616-3.847-8.462-3.846-3.847-8.462-3.847h-634.87q-4.616 0-8.462 3.847-3.847 3.846-3.847 8.462v474.87q0 4.616 3.847 8.462 3.846 3.847 8.462 3.847Zm-12.309 0v-499.488 499.488Z"/></svg>

<svg xmlns="http://www.w3.org/2000/svg" viewBox="0 -960 960 960" width="32" height="32"><path d="M162.57-220q-25.79 0-44.18-18.39T100-282.57v-474.86q0-25.79 18.39-44.18T162.57-820h634.86q25.79 0 44.18 18.39T860-757.43v474.86q0 25.79-18.39 44.18T797.43-220h-182.3v48.72q0 13.39-8.95 22.33-8.94 8.95-22.34 8.95H376.16q-13.4 0-22.34-8.95-8.95-8.94-8.95-22.33V-220h-182.3Zm0-50.26h634.86q4.62 0 8.47-3.84 3.84-3.85 3.84-8.47v-474.86q0-4.62-3.84-8.47-3.85-3.84-8.47-3.84H162.57q-4.62 0-8.47 3.84-3.84 3.85-3.84 8.47v474.86q0 4.62 3.84 8.47 3.85 3.84 8.47 3.84Zm-12.31 0v-499.48 499.48Z"/></svg>
